X: 105
T: Welch March
%%VWML:Wrights-3753-p53-0
F: http://www.vwml.org/record/Wrights/3753/p53
%R: march, reel
B: Daniel Wright "Wright's Compleat Collection of Celebrated Country Dances" 1740 p.53
S: http://library.efdss.org/cgi-bin/dancebooks.cgi
Z: 2014 John Chambers <jc:trillian.mit.edu>
M: C|
L: 1/8
K: D
%-------------------------
|:\
dd/d/ dd d2 A2 | dA Fd AF Dd/e/ |\
ff/f/ ff f2 e2 | f/g/a/b/ ^g2 a4 :|
|:\
ee/e/ ee e2 a2 | fd fa fd Af/g/ |\
aa/a/ aa a2 g2 | f/g/a/b/ e2 d4 :|
%-------------------------
%%begintext align
%% The 1st Man turn the 2d Wo. with his Right Hand
%% and his Partner with his Left, the 1st Cu. slip thro'
%% the 2d into their own Places .| Then the 1st and
%% 2d Cu. Set all four and turn single & turn their
%% Partners :| The 1st Cu. cast off two Cu. & lead
%% quite thro' the top into the 2d Cu. Places .|
%% Then they Hands all six quite round and the 1st
%% Cu. lead thro' the top, & all turn single :|
%%endtext
%-------------------------
%%sep 2 4 300
T: Westons Maggot
T: Longways for as many as will.
%R: march
B: Daniel Wright "Wright's Compleat Collection of Celebrated Country Dances" 1740 p.53
S: http://library.efdss.org/cgi-bin/dancebooks.cgi
Z: 2014 John Chambers <jc:trillian.mit.edu>
N: The repeat in the Note is presumably the last 6 bars, starting at the :S: symbol. M: C|
L: 1/8
K: D
%-------------------------
A2 |\
d2F2 A2D2 | A6 e2 | fga2 e2g2 | f6 a2 |\
(a2g2) (g2f2) | (f2e2) e2A2 | decd e4 | d6 ":S:"e2 |\
f2c2 d2B2 | edcB ^A2F2 | B4 c4 | defd g2f2 | e2d2 e2c2 | d6 |] %-------------------------
%%center Note. The Tune is to be play'd quite through, & repeat.
%%begintext align
%% The 1st Cu. lead up, and the 2d C7u. lead down at the
%% same Time .| Then the Men lead out and in,
%% The We. do the same at the same Time, and turn
%% all four single :| Then Hands all four quite round
%% and cast off, then right and left quite round.
%%endtext
%-------------------------
%%sep 2 4 300
